X:1
T:Alone in the Dark
C:Corwin Zekley
L:1/8
M:4/4
K:Dmin
"Dm" D3 A GAFG | DGFG DAGA |"Dm/C" c3 A dcAG | cAGE"Am/B" A4 |$"Dm" D3 A GAFG | DGFG DAGA | %6
"G" =B3 c BAGF |"Dm" AGFD"C" EFEF ::$"G" G=B c d2 G Bc | df=Bd efed |"Dm7" c=B A F2 c Bc | %11
 ADFA edcA |$"G" G=B c d2 G Bc | df=Bd efed |"Am/D" c3 A dcAG |"F" cAGF"^C(Am)" EFEF :| %16

